assets/img/arrow-up.svg

<svg width="43" height="43" viewBox="0 0 43 43" fill="none" xmlns="http://www.w3.org/2000/svg">
<circle cx="21.5" cy="21.5" r="21.5" fill="#EAE8F0"/>
<path fill-rule="evenodd" clip-rule="evenodd" d="M21.1771 31.2928C21.2321 31.6922 21.5795 32 21.9999 32C22.4585 32 22.8302 31.6337 22.8302 31.1818V16.8001L28.0813 21.9953L28.1743 22.0747C28.4989 22.313 28.9602 22.2876 29.2556 21.9977C29.5805 21.6788 29.5816 21.1608 29.258 20.8406L22.5996 14.2523C22.5614 14.213 22.5194 14.1776 22.474 14.1464C22.1498 13.9234 21.6999 13.9548 21.4111 14.2407L14.7419 20.8407L14.6617 20.9326C14.4213 21.2534 14.449 21.7079 14.7445 21.9977C15.0694 22.3166 15.5951 22.3155 15.9187 21.9953L21.1696 16.7988V31.1818L21.1771 31.2928Z" fill="#7B778D"/>
</svg>

<svg xmlns="http://www.w3.org/2000/svg" width="43" height="43" fill="none"><circle cx="21.5" cy="21.5" r="21.5" fill="#EAE8F0"/><path fill="#7B778D" fill-rule="evenodd" d="M21.177 31.293c.055.4.402.707.823.707.459 0 .83-.366.83-.818V16.8l5.251 5.195.093.08a.84.84 0 0 0 1.082-.077.81.81 0 0 0 .002-1.157L22.6 14.252a.84.84 0 0 0-1.188-.012l-6.67 6.6-.08.093a.81.81 0 0 0 .082 1.065.84.84 0 0 0 1.175-.003l5.25-5.196v14.383z" clip-rule="evenodd"/></svg>
